static/img/txt-circle.svg

<svg width="334" height="334" viewBox="0 0 334 334" fill="none" xmlns="http://www.w3.org/2000/svg">
<path fill-rule="evenodd" clip-rule="evenodd" d="M180.384 1.86255L172.039 24.9307L166.272 1.09904L159.13 0.712646L168.276 32.481L174.988 32.8442L187.547 2.2501L180.384 1.86255ZM144.832 27.9687L133.711 29.9544L132.731 36.6657L125.987 37.87L131.938 5.0842L137.816 4.03469L154.847 32.7168L148.102 33.9211L144.832 27.9687ZM134.504 24.5183L142.2 23.1442L136.269 12.3288L134.504 24.5183ZM116.219 42.62L122.116 40.0261L109.502 11.4515L103.605 14.0454L108.717 25.6244L97.2182 30.6825L92.1066 19.1035L86.21 21.6975L98.8242 50.2721L104.721 47.6782L99.3148 35.4319L110.813 30.3737L116.219 42.62ZM72.5861 60.264C71.7604 59.3711 70.8133 58.9792 69.7448 59.0883C68.6666 59.1868 67.0638 59.7299 64.9365 60.7173C62.7995 61.6942 61.0142 62.3665 59.5806 62.7342C55.6692 63.7313 52.6109 63.0376 50.4059 60.653C49.2596 59.4134 48.5869 57.9904 48.3877 56.384C48.1894 54.7574 48.4901 53.0697 49.2898 51.3211C50.1 49.5627 51.3207 47.9321 52.9518 46.4291C54.5934 44.9164 56.3329 43.868 58.1705 43.2837C59.9983 42.689 61.7649 42.6078 63.4705 43.0401C65.1867 43.4628 66.681 44.3621 67.9535 45.7383L63.2181 50.1018C62.2467 49.0513 61.1624 48.5426 59.9652 48.5757C58.7583 48.5984 57.555 49.1624 56.3553 50.2678C55.1978 51.3344 54.5264 52.4104 54.341 53.4956C54.1459 54.5703 54.4175 55.5069 55.1558 56.3052C55.8455 57.0511 56.7971 57.3319 58.0105 57.1477C59.2344 56.9537 60.7817 56.4034 62.6524 55.4968C66.0943 53.8233 68.9846 53.0181 71.3232 53.0811C73.6618 53.1442 75.6567 54.0686 77.3081 55.8544C79.1441 57.8399 79.8342 60.0931 79.3785 62.6143C78.9131 65.1249 77.4071 67.5535 74.8606 69.9001C73.0927 71.5292 71.1864 72.6924 69.1416 73.3897C67.0872 74.0766 65.1562 74.2119 63.3486 73.7958C61.5515 73.3699 59.9681 72.4164 58.5985 70.9352L63.3496 66.5571C65.6907 69.0888 68.3766 68.9583 71.4072 66.1657C72.5332 65.1281 73.203 64.0926 73.4167 63.0591C73.6207 62.0151 73.3438 61.0834 72.5861 60.264ZM39.2781 74.3243L42.4213 73.0872C42.3498 71.518 41.9463 69.9875 41.2109 68.4958C40.4755 67.0041 39.6023 65.8593 38.5913 65.0613L35.9795 62.9999L32.915 66.869L35.7627 69.1166C37.3537 70.427 38.5255 72.1629 39.2781 74.3243ZM32.5454 78.9161L27.8247 87.2396L50.4983 100.054L47.3229 105.653L24.6493 92.8383L19.9921 101.05L15.45 98.4828L28.0032 76.3491L32.5454 78.9161ZM24.2211 127.601L27.9968 115.837L23.1899 114.299L19.4142 126.064L12.3164 123.794L16.7345 110.028L11.764 108.438L5.37939 128.332L35.1616 137.856L41.5593 117.922L36.6297 116.345L32.1985 130.152L24.2211 127.601ZM27.6229 156.77L29.1505 143.194L34.2945 143.77L32.0475 163.741L0.969971 160.26L1.68939 153.866L27.6229 156.77ZM306.125 188.822L307.39 175.218L333.374 177.626L333.97 171.219L302.831 168.334L300.971 188.344L306.125 188.822ZM311.292 204.481L307.74 216.315L312.575 217.761L316.127 205.927L323.267 208.063L319.11 221.91L324.11 223.406L330.117 203.395L300.16 194.434L294.14 214.485L299.099 215.969L303.268 202.081L311.292 204.481ZM303.831 253.336L308.397 244.927L285.491 232.532L288.562 226.876L311.469 239.27L315.973 230.975L320.562 233.458L308.42 255.819L303.831 253.336ZM297.353 257.751L294.237 259.056C294.343 260.623 294.78 262.145 295.548 263.62C296.316 265.095 297.214 266.221 298.242 266.996L300.898 269L303.878 265.065L300.981 262.88C299.362 261.605 298.152 259.895 297.353 257.751ZM264.355 272.456C265.2 273.331 266.155 273.702 267.221 273.57C268.297 273.448 269.887 272.87 271.992 271.837C274.108 270.813 275.878 270.102 277.303 269.704C281.192 268.622 284.264 269.249 286.521 271.585C287.694 272.799 288.398 274.207 288.632 275.809C288.866 277.431 288.602 279.124 287.841 280.89C287.069 282.666 285.884 284.322 284.286 285.861C282.678 287.409 280.962 288.495 279.137 289.119C277.323 289.753 275.559 289.873 273.844 289.478C272.119 289.092 270.605 288.226 269.303 286.878L273.942 282.412C274.936 283.441 276.031 283.926 277.228 283.867C278.434 283.818 279.624 283.228 280.8 282.097C281.934 281.005 282.581 279.915 282.743 278.826C282.915 277.747 282.623 276.817 281.867 276.035C281.161 275.304 280.204 275.044 278.995 275.255C277.775 275.475 276.24 276.059 274.39 277.006C270.985 278.754 268.113 279.622 265.774 279.61C263.435 279.598 261.42 278.717 259.73 276.968C257.851 275.023 257.112 272.785 257.512 270.255C257.923 267.734 259.375 265.273 261.87 262.872C263.602 261.205 265.483 260 267.512 259.259C269.551 258.527 271.478 258.35 273.294 258.727C275.1 259.113 276.704 260.032 278.106 261.483L273.451 265.964C271.056 263.484 268.373 263.672 265.404 266.53C264.301 267.592 263.654 268.642 263.463 269.68C263.282 270.728 263.579 271.654 264.355 272.456ZM220.321 291.29L214.474 293.993L227.619 322.329L233.466 319.625L228.139 308.143L239.542 302.872L244.868 314.354L250.716 311.651L237.571 283.316L231.723 286.019L237.357 298.163L225.955 303.434L220.321 291.29ZM191.817 306.347L202.898 304.149L203.749 297.42L210.469 296.088L205.146 328.981L199.29 330.142L181.713 301.79L188.433 300.458L191.817 306.347ZM202.209 309.599L194.541 311.12L200.678 321.82L202.209 309.599ZM156.42 332.893L164.41 309.698L170.542 333.437L177.689 333.713L168.057 302.09L161.34 301.831L149.251 332.617L156.42 332.893ZM123.864 309.19L135.853 312.239L137.921 304.133L123.851 300.555L125.129 295.546L145.444 300.713L137.721 330.973L117.448 325.818L118.737 320.767L132.766 324.335L134.606 317.123L122.618 314.074L123.864 309.19ZM93.9354 295.309L83.4241 288.794L80.6816 293.203L91.1929 299.718L86.932 306.569L75.1068 299.239L72.353 303.667L89.6528 314.389L106.153 287.862L100.678 284.469L93.9354 295.309ZM45.4619 280.405L59.7082 265.55C62.0752 263.082 64.7228 261.872 67.6511 261.919C70.5691 261.957 73.3678 263.256 76.0471 265.816C78.6851 268.337 80.1114 271.036 80.3262 273.913C80.5409 276.79 79.4952 279.462 77.189 281.929L62.7793 296.955L58.1241 292.506L72.4001 277.62C73.8163 276.143 74.4995 274.728 74.4497 273.374C74.3796 272.02 73.7187 270.746 72.467 269.549C69.8497 267.048 67.2032 267.151 64.5275 269.859L50.1326 284.869L45.4619 280.405ZM51.905 237.019L48.4054 231.617L22.1422 248.569L25.6302 253.954L42.9465 242.776L32.4544 264.489L35.954 269.891L62.2171 252.939L58.7175 247.536L41.4372 258.69L51.905 237.019ZM33.9465 222.698L35.9374 227.446L16.2275 236.472L13.6725 230.379L33.9465 222.698ZM38.0725 223.764C37.6688 222.801 37.6293 221.911 37.954 221.093C38.2731 220.263 38.8752 219.662 39.7602 219.293C40.632 218.928 41.4763 218.924 42.2932 219.28C43.1045 219.623 43.712 220.276 44.1157 221.239C44.5139 222.189 44.5534 223.079 44.2343 223.91C43.9096 224.727 43.3114 225.318 42.4396 225.683C41.5678 226.047 40.7262 226.057 39.9149 225.714C39.0848 225.364 38.4707 224.714 38.0725 223.764ZM15.4851 198.433C16.5277 199.219 17.7838 199.493 19.2535 199.254L19.9955 199.133C21.5076 198.887 22.6257 198.226 23.3497 197.152C24.0714 196.064 24.3112 194.779 24.0691 193.298C23.8247 191.802 23.1895 190.666 22.1634 189.892C21.1209 189.105 19.8718 188.831 18.4162 189.068L17.5047 189.216C16.0819 189.477 15.0074 190.137 14.2811 191.197C13.5524 192.243 13.3126 193.528 13.5617 195.052C13.8015 196.519 14.4426 197.646 15.4851 198.433ZM212.84 26.0282L200.912 22.7528L198.689 30.8176L212.689 34.6618L211.316 39.6454L191.103 34.0953L199.4 3.98658L219.571 9.52528L218.186 14.5503L204.228 10.7176L202.251 17.8932L214.179 21.1687L212.84 26.0282ZM242.853 40.4024L253.243 47.1089L256.066 42.7508L245.676 36.0443L250.062 29.2731L261.751 36.8179L264.585 32.4418L247.486 21.404L230.501 47.6246L235.912 51.1175L242.853 40.4024ZM290.957 55.9616L276.443 70.5559C274.031 72.9807 271.362 74.1428 268.435 74.0422C265.518 73.9517 262.744 72.6021 260.111 69.9935C257.52 67.4251 256.143 64.7007 255.98 61.8202C255.818 58.9398 256.912 56.2873 259.263 53.8627L273.943 39.101L278.517 43.6334L263.972 58.2582C262.53 59.709 261.821 61.1116 261.846 62.4661C261.891 63.8206 262.529 65.1071 263.759 66.3259C266.33 68.8741 268.978 68.819 271.703 66.1606L286.368 51.4141L290.957 55.9616ZM284.025 99.416L287.425 104.882L313.995 88.4134L310.607 82.9658L293.088 93.8241L303.978 72.3074L300.578 66.8416L274.008 83.3101L277.407 88.7759L294.89 77.9402L284.025 99.416ZM301.841 114.216L299.939 109.432L319.815 100.776L322.255 106.916L301.841 114.216ZM297.736 113.074C298.121 114.044 298.144 114.935 297.804 115.746C297.469 116.571 296.856 117.16 295.964 117.513C295.086 117.861 294.242 117.849 293.432 117.478C292.627 117.12 292.032 116.456 291.646 115.485C291.266 114.528 291.243 113.638 291.578 112.813C291.918 112.001 292.527 111.422 293.405 111.074C294.284 110.726 295.125 110.731 295.93 111.089C296.753 111.455 297.355 112.117 297.736 113.074ZM319.917 139.006C318.889 138.2 317.639 137.903 316.165 138.114L315.421 138.22C313.904 138.438 312.773 139.076 312.029 140.136C311.286 141.21 311.022 142.491 311.236 143.977C311.451 145.477 312.065 146.624 313.076 147.418C314.103 148.224 315.346 148.523 316.806 148.314L317.721 148.183C319.148 147.95 320.235 147.31 320.982 146.264C321.73 145.232 321.995 143.952 321.775 142.424C321.563 140.952 320.944 139.813 319.917 139.006Z" fill="black"/>
</svg>

<svg xmlns="http://www.w3.org/2000/svg" width="334" height="334" fill="none"  xmlns:v="https://vecta.io/nano"><path fill-rule="evenodd" d="M180.384 1.863l-8.345 23.068-5.767-23.832-7.142-.386 9.146 31.768 6.712.363L187.547 2.25l-7.163-.388zm-35.552 26.106l-11.121 1.986-.98 6.711-6.744 1.204 5.951-32.786 5.878-1.05 17.031 28.682-6.745 1.204-3.27-5.952zm-10.328-3.45l7.696-1.374-5.931-10.815-1.765 12.19zM116.219 42.62l5.897-2.594-12.614-28.575-5.897 2.594 5.112 11.579-11.499 5.058-5.112-11.579-5.897 2.594 12.614 28.575 5.897-2.594-5.406-12.246 11.498-5.058 5.406 12.246zM72.586 60.264c-.826-.893-1.773-1.285-2.841-1.176-1.078.099-2.681.642-4.808 1.629-2.137.977-3.922 1.649-5.356 2.017-3.911.997-6.97.303-9.175-2.081-1.146-1.24-1.819-2.663-2.018-4.269-.198-1.627.102-3.314.902-5.063.81-1.758 2.031-3.389 3.662-4.892 1.642-1.513 3.381-2.561 5.219-3.145 1.828-.595 3.594-.676 5.3-.244 1.716.423 3.21 1.322 4.483 2.698l-4.735 4.363c-.971-1.05-2.056-1.559-3.253-1.526-1.207.023-2.41.587-3.61 1.692-1.157 1.067-1.829 2.143-2.014 3.228a3.11 3.11 0 0 0 .815 2.81c.69.746 1.641 1.027 2.855.843 1.224-.194 2.771-.744 4.642-1.651 3.442-1.673 6.332-2.479 8.671-2.416s4.334.988 5.985 2.773c1.836 1.986 2.526 4.239 2.07 6.76-.465 2.511-1.971 4.939-4.518 7.286-1.768 1.629-3.674 2.792-5.719 3.49-2.054.687-3.985.822-5.793.406-1.797-.426-3.38-1.379-4.75-2.861l4.751-4.378c2.341 2.532 5.027 2.401 8.058-.391 1.126-1.038 1.796-2.073 2.01-3.107.204-1.044-.073-1.976-.831-2.795zm-33.308 14.06l3.143-1.237c-.072-1.569-.475-3.1-1.21-4.591s-1.609-2.636-2.62-3.434L35.98 63l-3.065 3.869 2.848 2.248c1.591 1.31 2.763 3.046 3.515 5.208zm-6.733 4.592l-4.721 8.323 22.674 12.814-3.175 5.599-22.674-12.815-4.657 8.212-4.542-2.567 12.553-22.134 4.542 2.567zm-8.324 48.685l3.776-11.764-4.807-1.538-3.776 11.765-7.098-2.27 4.418-13.766-4.971-1.59-6.385 19.894 29.782 9.524 6.398-19.934-4.93-1.577-4.431 13.807-7.977-2.551zm3.402 29.169l1.528-13.576 5.144.576-2.247 19.971L.97 160.26l.719-6.394 25.934 2.904zm278.502 32.052l1.265-13.604 25.984 2.408.596-6.407-31.139-2.885-1.86 20.01 5.154.478zm5.167 15.659l-3.552 11.834 4.835 1.446 3.552-11.834 7.14 2.136-4.157 13.847 5 1.496 6.007-20.011-29.957-8.961-6.02 20.051 4.959 1.484 4.169-13.888 8.024 2.4zm-7.461 48.855l4.566-8.409-22.906-12.395 3.071-5.656 22.907 12.394 4.504-8.295 4.589 2.483-12.142 22.361-4.589-2.483zm-6.478 4.415l-3.116 1.305c.106 1.567.543 3.089 1.311 4.564s1.666 2.601 2.694 3.376l2.656 2.004 2.98-3.935-2.897-2.185c-1.619-1.275-2.829-2.985-3.628-5.129zm-32.998 14.705c.845.875 1.8 1.246 2.866 1.114 1.076-.122 2.666-.7 4.771-1.733 2.116-1.024 3.886-1.735 5.311-2.133 3.889-1.082 6.961-.455 9.218 1.881 1.173 1.214 1.877 2.622 2.111 4.224.234 1.622-.03 3.315-.791 5.081-.772 1.776-1.957 3.432-3.555 4.971-1.608 1.548-3.324 2.634-5.149 3.258-1.814.634-3.578.754-5.293.359-1.725-.386-3.239-1.252-4.541-2.6l4.639-4.466c.994 1.029 2.089 1.514 3.286 1.455 1.206-.049 2.396-.639 3.572-1.77 1.134-1.092 1.781-2.182 1.943-3.271.172-1.079-.12-2.009-.876-2.791-.706-.731-1.663-.991-2.872-.78-1.22.22-2.755.804-4.605 1.751-3.405 1.748-6.277 2.616-8.616 2.604s-4.354-.893-6.044-2.642c-1.879-1.945-2.618-4.183-2.218-6.713.411-2.521 1.863-4.982 4.358-7.383 1.732-1.667 3.613-2.872 5.642-3.613 2.039-.732 3.966-.909 5.782-.532 1.806.386 3.41 1.305 4.812 2.756l-4.655 4.481c-2.395-2.48-5.078-2.292-8.047.566-1.103 1.062-1.75 2.112-1.941 3.15-.181 1.048.116 1.974.892 2.776zm-44.034 18.834l-5.847 2.703 13.145 28.336 5.847-2.704-5.327-11.482 11.403-5.271 5.326 11.482 5.848-2.703-13.145-28.335-5.848 2.703 5.634 12.144-11.402 5.271-5.634-12.144zm-28.504 15.057l11.081-2.198.851-6.729 6.72-1.332-5.323 32.893-5.856 1.161-17.577-28.352 6.72-1.332 3.384 5.889zm10.392 3.252l-7.668 1.521 6.137 10.7 1.531-12.221zm-45.789 23.294l7.99-23.195 6.132 23.739 7.147.276-9.632-31.623-6.717-.259-12.089 30.786 7.169.276zm-32.556-23.703l11.989 3.049 2.068-8.106-14.07-3.578 1.278-5.009 20.315 5.167-7.723 30.26-20.273-5.155 1.289-5.051 14.029 3.568 1.84-7.212-11.988-3.049 1.246-4.884zm-29.929-13.881l-10.511-6.515-2.742 4.409 10.511 6.515-4.261 6.851-11.825-7.33-2.754 4.428 17.3 10.722 16.5-26.527-5.475-3.393-6.743 10.84zm-48.473-14.904l14.246-14.855c2.367-2.468 5.015-3.678 7.943-3.631 2.918.038 5.717 1.337 8.396 3.897 2.638 2.521 4.064 5.22 4.279 8.097s-.831 5.549-3.137 8.016l-14.41 15.026-4.655-4.449L72.4 277.62c1.416-1.477 2.099-2.892 2.05-4.246-.07-1.354-.731-2.628-1.983-3.825-2.617-2.501-5.264-2.398-7.939.31l-14.395 15.01-4.671-4.464zm6.443-43.386l-3.5-5.402-26.263 16.952 3.488 5.385 17.316-11.178-10.492 21.713 3.5 5.402 26.263-16.952-3.5-5.403-17.28 11.154 10.468-21.671zm-17.958-14.321l1.991 4.748-19.71 9.026-2.555-6.093 20.274-7.681zm4.126 1.066c-.404-.963-.443-1.853-.118-2.671.319-.83.921-1.431 1.806-1.8.872-.365 1.716-.369 2.533-.013.811.343 1.419.996 1.822 1.959.398.95.438 1.84.119 2.671-.325.817-.923 1.408-1.795 1.773s-1.713.374-2.525.031c-.83-.35-1.444-1-1.842-1.95zm-22.587-25.331c1.043.786 2.299 1.06 3.768.821l.742-.121c1.512-.246 2.63-.907 3.354-1.981.722-1.088.962-2.373.719-3.854-.244-1.496-.88-2.632-1.906-3.406-1.043-.787-2.292-1.061-3.747-.824l-.912.148c-1.423.261-2.497.921-3.224 1.981-.729 1.046-.969 2.331-.719 3.855.24 1.467.881 2.594 1.923 3.381zM212.84 26.028l-11.928-3.275-2.223 8.065 14 3.844-1.373 4.984-20.213-5.55L199.4 3.987l20.171 5.539-1.385 5.025-13.958-3.833-1.977 7.176 11.928 3.276-1.339 4.859zm30.013 14.374l10.39 6.706 2.823-4.358-10.39-6.706 4.386-6.771 11.689 7.545 2.834-4.376-17.099-11.038-16.985 26.221 5.411 3.493 6.941-10.715zm48.104 15.559l-14.514 14.594c-2.412 2.425-5.081 3.587-8.008 3.486-2.917-.09-5.691-1.44-8.324-4.049-2.591-2.568-3.968-5.293-4.131-8.173s.932-5.533 3.283-7.958l14.68-14.762 4.574 4.532-14.545 14.625c-1.442 1.451-2.151 2.853-2.126 4.208.045 1.355.683 2.641 1.913 3.86 2.571 2.548 5.219 2.493 7.944-.165l14.665-14.747 4.589 4.547zm-6.932 43.454l3.4 5.466 26.57-16.469-3.388-5.448-17.519 10.858 10.89-21.517-3.4-5.466-26.57 16.469 3.399 5.466L294.89 77.94l-10.865 21.476zm17.816 14.8l-1.902-4.784 19.876-8.656 2.44 6.14-20.414 7.3zm-4.105-1.142c.385.97.408 1.861.068 2.672-.335.825-.948 1.414-1.84 1.767-.878.348-1.722.336-2.532-.035-.805-.358-1.4-1.022-1.786-1.993-.38-.957-.403-1.847-.068-2.672.34-.812.949-1.391 1.827-1.739s1.72-.343 2.525.015c.823.366 1.425 1.028 1.806 1.985zm22.181 25.932c-1.028-.806-2.278-1.103-3.752-.892l-.744.106c-1.517.218-2.648.856-3.392 1.916-.743 1.074-1.007 2.355-.793 3.841.215 1.5.829 2.647 1.84 3.441 1.027.806 2.27 1.105 3.73.896l.915-.131c1.427-.233 2.514-.873 3.261-1.919.748-1.032 1.013-2.312.793-3.84-.212-1.472-.831-2.611-1.858-3.418z" fill="#000"/></svg>
